X:1
T:Rick’s Revenge
C:Rick Payman
M:4/4
L:1/8
K:Dmix
|:AD(3FED) CEAB|cAGB AGFG|Adde fded|^cAAB =cAGB|
AD(3FED) CEAB|cAGB AGFG|Ad^cA de=fe|dc_BA [1GcE2 :|[2Gc ag|]
=fd^cA de^fd|~c2Gc EcGc|AD(3FED) CEAB|cAGB A^c ag|
=fd^cA de^fd|~c2Gc EcGc|Ad^cA de=fe|dc_BA Gc ag|
=fd^cA de^fd|~c2Gc EcGc|AD(3FED) CEAB|cAGB AGFG|
Adde fded|^cAAB =cAGB|Ad^cA de=fe|dcAG =FAD2||
